apps/marketing/public/logos/scribe.svg

<svg width="93" height="32" viewBox="0 0 93 32" fill="none" xmlns="http://www.w3.org/2000/svg">
<g clip-path="url(#clip0_1599_1796)">
<mask id="mask0_1599_1796" style="mask-type:luminance" maskUnits="userSpaceOnUse" x="0" y="0" width="93" height="32">
<path d="M93 0H0V32H93V0Z" fill="white"/>
</mask>
<g mask="url(#mask0_1599_1796)">
<path fill-rule="evenodd" clip-rule="evenodd" d="M77.3523 1.67214C77.2235 1.70113 77.132 1.81496 77.132 1.94631V4.61834C77.132 4.79861 77.3003 4.93229 77.4772 4.8925L84.88 3.22741C85.0089 3.19842 85.1004 3.08459 85.1004 2.95324V0.281213C85.1004 0.100938 84.9321 -0.0327376 84.7552 0.00704875L77.3523 1.67214ZM77.132 6.61579C77.132 6.48444 77.2235 6.37061 77.3523 6.34162L92.7236 2.88423C92.9005 2.84444 93.0688 2.97811 93.0688 3.15839V5.83042C93.0688 5.96176 92.9773 6.0756 92.8485 6.10459L77.4772 9.56198C77.3003 9.60177 77.132 9.46809 77.132 9.28782V6.61579ZM85.1005 9.49321C85.1005 9.36187 85.192 9.24803 85.3208 9.21905L92.7237 7.55395C92.9006 7.51417 93.0689 7.64784 93.0689 7.82812V10.5001C93.0689 10.6315 92.9774 10.7453 92.8485 10.7743L85.4457 12.4394C85.2688 12.4792 85.1005 12.3455 85.1005 12.1652V9.49321Z" fill="white"/>
<path d="M8.17578 22.6181C8.17578 22.7087 8.21953 22.794 8.29445 22.8456C9.78158 23.8703 11.6743 24.5324 14.019 24.5324C18.1569 24.5324 20.3136 22.2888 20.3136 19.5966C20.3136 16.8046 18.6835 15.4335 15.5488 14.0625C13.5927 13.19 11.787 12.5917 11.787 11.1957C11.787 10.1487 12.7902 9.40091 14.5958 9.40091C16.1052 9.40091 17.2623 9.80637 18.2745 10.538C18.4704 10.6797 18.7588 10.5468 18.7588 10.3059V7.90432C18.7588 7.81131 18.7127 7.72395 18.6342 7.6734C17.4798 6.93052 16.0936 6.55908 14.5206 6.55908C11.1601 6.55908 8.65227 8.32899 8.65227 11.1957C8.65227 13.9129 10.6836 15.2341 13.2917 16.331C16.0252 17.4777 17.2039 18.051 17.2039 19.5966C17.2039 20.6934 16.0754 21.7404 13.8434 21.7404C11.7103 21.7404 10.0103 20.9967 8.67367 19.8735C8.48221 19.7127 8.17578 19.8429 8.17578 20.0921V22.6181Z" fill="white"/>
<path d="M21.9825 17.9264C21.9825 21.7653 24.9668 24.5822 28.879 24.5822C30.3823 24.5822 31.7918 24.1861 32.8356 23.3938C32.9034 23.3423 32.9416 23.2616 32.9416 23.1768V20.9877C32.9416 20.7388 32.6335 20.6065 32.4356 20.7592C31.4059 21.5539 30.2578 21.8651 29.0545 21.8651C26.6972 21.8651 24.9668 20.1949 24.9668 17.9264C24.9668 15.6579 26.6972 13.9877 29.0545 13.9877C30.2594 13.9877 31.409 14.318 32.4398 15.1046C32.6372 15.2552 32.9416 15.1228 32.9416 14.8754V12.6785C32.9416 12.5922 32.9021 12.5104 32.8324 12.4589C31.789 11.6891 30.3808 11.2705 28.879 11.2705C24.9668 11.2705 21.9825 14.0874 21.9825 17.9264Z" fill="white"/>
<path d="M35.1709 23.952C35.1709 24.1072 35.2975 24.233 35.4537 24.233H37.8724C38.0286 24.233 38.1552 24.1072 38.1552 23.952V17.627C38.1552 15.558 39.4844 14.2617 41.5659 14.2617C41.8959 14.2617 42.2019 14.2856 42.4755 14.3252C42.6537 14.351 42.8198 14.2176 42.8198 14.0386V11.7251C42.8198 11.5911 42.7242 11.4778 42.5903 11.4628C42.3961 11.4411 42.1298 11.4199 41.917 11.4199C40.1113 11.4199 38.7571 12.2425 38.1552 13.5388V11.9503C38.1552 11.795 38.0286 11.6692 37.8724 11.6692H35.4537C35.2975 11.6692 35.1709 11.795 35.1709 11.9503V23.952Z" fill="white"/>
<path d="M46.4472 10.1985C47.4002 10.1985 48.2277 9.42573 48.2277 8.4286C48.2277 7.43146 47.4002 6.65869 46.4472 6.65869C45.4691 6.65869 44.6416 7.43146 44.6416 8.4286C44.6416 9.42573 45.4691 10.1985 46.4472 10.1985ZM44.9425 23.9521C44.9425 24.1073 45.0691 24.2331 45.2253 24.2331H47.6691C47.8253 24.2331 47.9519 24.1073 47.9519 23.9521V11.9504C47.9519 11.7951 47.8253 11.6693 47.6691 11.6693H45.2253C45.0691 11.6693 44.9425 11.7951 44.9425 11.9504V23.9521Z" fill="white"/>
<path d="M50.6006 23.9522C50.6006 24.1074 50.7272 24.2332 50.8834 24.2332H53.3272C53.4833 24.2332 53.61 24.1074 53.61 23.9522V22.4135C54.0363 23.5851 55.5159 24.5075 57.6475 24.5075C61.2086 24.5075 63.9672 21.6656 63.9672 17.9513C63.9672 14.237 61.2086 11.3951 57.6475 11.3951C55.5159 11.3951 54.0363 12.3175 53.61 13.4891V7.3569C53.61 7.17662 53.4416 7.04295 53.2648 7.08273L50.8209 7.63241C50.6921 7.6614 50.6006 7.77523 50.6006 7.90658V23.9522ZM53.3843 17.9513C53.3843 15.7576 55.0645 14.1123 57.2463 14.1123C59.3779 14.1123 60.9829 15.7576 60.9829 17.9513C60.9829 20.145 59.3779 21.7903 57.2463 21.7903C55.0645 21.7903 53.3843 20.145 53.3843 17.9513Z" fill="white"/>
<path d="M65.5019 18.0758C65.5019 22.0395 68.2103 24.6071 72.1727 24.6071C74.3042 24.6071 75.5702 24.1885 76.7162 23.4186C76.7925 23.3674 76.8372 23.2812 76.8372 23.1896V21.1871C76.8372 20.9419 76.5341 20.804 76.3296 20.9411C75.5437 21.4682 74.2546 21.9896 72.2981 21.9896C70.041 21.9896 68.5865 20.7182 68.4862 18.724H77.9104C78.0557 18.724 78.1776 18.6145 78.1875 18.4705C78.2165 18.0496 78.2165 17.6521 78.2165 17.6521C78.2165 14.1621 75.7589 11.3701 72.0473 11.3701C68.2856 11.3701 65.5019 13.9377 65.5019 17.9512V18.0758ZM68.5614 16.6051C68.6617 15.1094 70.1915 13.9128 72.0473 13.9128C73.7777 13.9128 75.157 15.1343 75.157 16.6051H68.5614Z" fill="white"/>
</g>
</g>
<defs>
<clipPath id="clip0_1599_1796">
<rect width="93" height="32" fill="white"/>
</clipPath>
</defs>
</svg>

<svg xmlns="http://www.w3.org/2000/svg" width="93" height="32" fill="none" viewBox="0 0 93 32"><g clip-path="url(#a)"><mask id="b" width="93" height="32" x="0" y="0" maskUnits="userSpaceOnUse" style="mask-type:luminance"><path fill="#fff" d="M93 0H0v32h93z"/></mask><g fill="#fff" mask="url(#b)"><path fill-rule="evenodd" d="M77.352 1.672a.28.28 0 0 0-.22.274v2.672c0 .18.168.314.345.274l7.403-1.665a.28.28 0 0 0 .22-.274V.281a.282.282 0 0 0-.345-.274zm-.22 4.944c0-.132.091-.245.22-.274l15.372-3.458a.282.282 0 0 1 .345.274V5.83a.28.28 0 0 1-.22.275L77.477 9.562a.282.282 0 0 1-.345-.274zM85.1 9.493c0-.131.092-.245.22-.274l7.404-1.665a.282.282 0 0 1 .345.274V10.5a.28.28 0 0 1-.22.274l-7.403 1.665a.282.282 0 0 1-.346-.274z" clip-rule="evenodd"/><path d="M8.176 22.618c0 .09.044.176.118.228 1.488 1.024 3.38 1.686 5.725 1.686 4.138 0 6.295-2.243 6.295-4.935 0-2.792-1.63-4.164-4.765-5.535-1.956-.872-3.762-1.47-3.762-2.866 0-1.047 1.003-1.795 2.809-1.795 1.51 0 2.666.405 3.678 1.137.196.142.485.009.485-.232V7.904a.27.27 0 0 0-.125-.23c-1.154-.743-2.54-1.115-4.113-1.115-3.36 0-5.869 1.77-5.869 4.637 0 2.717 2.032 4.038 4.64 5.135 2.733 1.147 3.912 1.72 3.912 3.266 0 1.096-1.129 2.143-3.36 2.143-2.134 0-3.834-.743-5.17-1.866-.192-.161-.498-.031-.498.218zM21.983 17.926c0 3.84 2.984 6.656 6.896 6.656 1.503 0 2.913-.396 3.957-1.188a.27.27 0 0 0 .106-.217v-2.19c0-.248-.309-.38-.506-.228-1.03.795-2.178 1.106-3.381 1.106-2.358 0-4.088-1.67-4.088-3.939 0-2.268 1.73-3.938 4.088-3.938 1.204 0 2.354.33 3.385 1.117.197.15.502.018.502-.23v-2.197a.27.27 0 0 0-.11-.22c-1.043-.769-2.451-1.187-3.953-1.187-3.912 0-6.896 2.816-6.896 6.655M35.17 23.952c0 .155.127.281.284.281h2.418a.28.28 0 0 0 .283-.281v-6.325c0-2.069 1.33-3.365 3.41-3.365.33 0 .637.024.91.063a.297.297 0 0 0 .345-.286v-2.314a.26.26 0 0 0-.23-.262 7 7 0 0 0-.673-.043c-1.806 0-3.16.822-3.762 2.119V11.95a.28.28 0 0 0-.283-.28h-2.418a.28.28 0 0 0-.283.28zM46.447 10.199c.953 0 1.78-.773 1.78-1.77 0-.998-.827-1.77-1.78-1.77-.978 0-1.805.772-1.805 1.77 0 .997.827 1.77 1.805 1.77m-1.505 13.753c0 .155.127.281.283.281h2.444a.28.28 0 0 0 .283-.28V11.95a.28.28 0 0 0-.283-.28h-2.444a.28.28 0 0 0-.282.28zM50.6 23.952c0 .155.127.281.283.281h2.444a.28.28 0 0 0 .283-.28v-1.54c.426 1.172 1.906 2.095 4.038 2.095 3.56 0 6.32-2.842 6.32-6.557 0-3.714-2.76-6.556-6.32-6.556-2.132 0-3.612.923-4.038 2.094V7.357a.282.282 0 0 0-.345-.274l-2.444.55a.28.28 0 0 0-.22.274zm2.784-6c0-2.194 1.68-3.84 3.862-3.84 2.132 0 3.737 1.646 3.737 3.84s-1.605 3.838-3.737 3.838c-2.181 0-3.862-1.645-3.862-3.839M65.502 18.076c0 3.964 2.708 6.531 6.67 6.531 2.132 0 3.398-.418 4.544-1.188a.28.28 0 0 0 .121-.23v-2.002c0-.245-.303-.383-.507-.246-.786.527-2.075 1.049-4.032 1.049-2.257 0-3.712-1.272-3.812-3.266h9.424c.146 0 .268-.11.278-.253.028-.421.028-.819.028-.819 0-3.49-2.457-6.282-6.169-6.282-3.761 0-6.545 2.568-6.545 6.581zm3.06-1.47c.1-1.497 1.63-2.693 3.485-2.693 1.73 0 3.11 1.221 3.11 2.692z"/></g></g><defs><clipPath id="a"><path fill="#fff" d="M0 0h93v32H0z"/></clipPath></defs></svg>
